X:1
T:William Byrd ~1540 - 1623
T:O Admirabile Commertium
%%score [ 1 2 3 4 ]
L:1/8
Q:1/4=133
M:4/4
K:C
V:1 treble nm="Cantus primus"
V:2 treble nm="Cantus secundus"
V:3 treble nm="Tenor"
V:4 treble nm="Bassus"
V:1
"^:""^Q" x8 ||[K:F] z16 x4 | z16 x4 | z16 | z8 z4 D8 | G8 F4 x4 | B6 B2 A8 x4 | G8 A6 A2 | %8
w: ||||O|ad- mi-|ra- bi- le|com- mer- ti-|
 D4 _E2 D3"^(  )" =EFG A3 A | G8 z4 G8 | A2 B2 c6 B2 x4 | A16 | z16 | z16 | z4 d4 c4 A4 | %15
w: um, com- mer * * * * ti-|um com-|mer * * ti-|um,|||cre- a- tor|
 B6 B2 A4 F2 d4 | ^c=B !courtesy!^c4 d4 G4 F4 | D4 E6 E2 x4 | D8 z4 A4 x2 | G4 E4 F6 F2 x6 | %20
w: ge- ne- ris hu~- ~ma|* * * ni, cre- a-|tor ge- ne-|ris, cre-|a- tor ge- ne-|
 D4 D2 G4 ^FE F4 | G8 z4 B6 | c2 d2 c2 =B4 A2 c4 x2 | =BA !courtesy!=B4 c2 G3 FGA x2 | G8 z4 G6 | %25
w: ris hu- ma- * * *|ni, a-|ni- ma~- ~tum~ ~cor\-~ ~pus~ ~su~|* * * mens,~ su * * *|mens, a-|
 A2 B2 A2 G4 ^F4 A6 | G2"^(  )" F4 E4 ^F6 x14 |[Q:1/4=170] G2 A2 B2 c2 B2 x6 | %28
w: ni- ma- tum cor- pus su-|* * mens, su-||
[M:4/2][Q:1/4=170][Q:1/4=170][Q:1/4=170] A4 D8 G6 |"^(  )" F2 E8 A8 | G2 F2 G2 F2 E2 D2 E4 x4 | %31
w: mens, de Vir-|gi- ne na-|sci di- gna * * * *|
 E4 D8 x4 | z4 G4 B6 c2 x8 | A4 d8 ^c2 =B2 x2 | ^c4 c4 d8 | d8 c8 x8 | A8 =B16 | z4 c4 G4 c8 | %38
w: tus est,|de Vir- *|ne na- sci di-|gna- tus est,|di- gna-|tus est|et pro- ce-|
 B4 A8 ^G4 x6 | A8 ^G4 A6 x2 |"^(  )" G2 x18 | F8 z4 E4 x4 | D4 G8 F4 x2 | E6 E2 D8 | %44
w: dens ho- mo|si- ne se-|mi-|ne, si-|ne se- *|* mi- ne,|
 z4 d4 c4 A2 B2 x8 | c4 C2 D2 E2 F2 G2 F4 | ED E4 F8 z4 | F4 E4 C2 D2 E2 C2 | F8 E4 x4 | F8 z8 x4 | %50
w: lar- gi- tus est|no- * * * * * *|* * * bis,|lar- gi- tus est no *||bis|
 z16 x4 | z16 x4 | z8 A8 | B8 A8 | G4 F4 E8 | D8 z4 E4 | F12 E4 x4 | F4 G4 A6 B2 x4 | %58
w: ||su-|* am|De- i- ta-|tem, su-|* am|De- i- ta- *|
 A4 G4 F4 z4 x4 | z4 A8 c8 x2 | A4 B4 c4 x8 | d6 c2 A6 B2 x12 | c6 B2 A4 G8 | F4 E8"F#" x16 x2 |] %64
w: * * tem,|su- *|am De- i-|ta- * * *|* * tem, De|i- ta-|
V:2
"^:""^Q" x8 ||[K:F] z16 x4 | z4 A,8 D8 | C4 F6 F2 E4 | E8 F8 x4 | D4 x8- x4 | x8 z4 D8 | G8 F4 B4 | %8
w: ||O ad-|mi- ra- bi- le|com- mer-|ti- um,\_|o|ad- mi- ra-|
 B4 A8 B4 | c8 =B4 c6 x2 |"^(  )" B2 A4 G4 x6 | ^F16 | z8 z4 G4 | F4 D4 E6 E2 | D4 z2 D2 E4 ^F4 | %15
w: bi- le com-|mer- ti- um,|com- mer- ti-|um,|cre-|a- tor ge- ne-|ris, cre- a- tor|
 G6 G2 D4 B4 x2 | A8 G8 x2 | z4 d4 c4 A4 | B6 B2 A4 A2 d4 | ^c=B !courtesy!^c4 d4 A4 _B8 | A8 x8 | %21
w: ge- ne- ris hu-|ma- ni,|cre- a- tor|ge- ne- ris hu- ma|* * * ni, hu- ma-|ni,|
 z8 z4 D6 | E2 F2 E2 D4 C4 E4 | D4 C4 x4- x4 | x2 F2 G2 F2 E4 D4 x2 | E3 F G2 A2 B4 A4 x4 | %26
w: a-|ni~- ~ma\-~ ~tum~ ~cor- pus su-|* mens, a-|ni\-~ ~ma~- ~tum~ ~~cor\-~ ~pus|su- * * * * mens,|
 z4 A6 B2 c2 B2 x14 | A4 G4 ^F4 x4- |[M:4/2] x2 ^FE !courtesy!^F4 G8 x2 | z4 G4 c6 B2 x2 | %30
w: a- ni- ma- tum|cor- pus su- *|* * * mens,|de Vir- gi-|
 A4 d8 ^c2 =B2 x4 | ^c4 c4 d8 | D8 D12 x4 | B4 A8 z4 x2 | E4 F6 E2 D4 | G8 ^F2 E2 x12 | %36
w: ne na- sci di-|gna- tus est,|di- gna-|tus est,|de Vir- gi- ne|na- sci di-|
 ^F4 F4 G16 | z4 G4 E4 A6 x2 | G2 G8 F4 E8 | z8 z4 c4 x4 | A4 d6 c2 c8 |"^(  )" B4 A8 z4 x4 | %42
w: gna- tus est|et pro- ce-|dens ho- * mo,|si-|ne se- * *|mi- ne,|
 A4 F4 D2 E2 F2 D2 x2 | F2 G2 A4 c4 x4 | A4 F2 F2 c8 x8 | C4 c4 A4 F2 G2 x2 | A8 A8 x2 | A8 B8 | %48
w: lar- gi- tus est no *|* * bis, lar-|gi- tus est no-|bis, lar- gi- tus est|no- bis|su- *|
 A8 G4 F4 | E8 D8 x4 | z4 F4 E4 D8 | ^C4 D3 E F2 D2 G8 | F6 D2 x8 | E2 ^C2 D4 A,8 | A8 c8 | %55
w: am De- i|ta- tem,|su- am De-|i- ta * * * tem,|De- i-|ta- * * tem,|su- *|
 A8 B4 c4 | d12 c2 B2 x4 | c6 B2 A4 G2 F2 x4 | E8 z4 E8 | F8 E4 x10 | D6 E2 F2 G2 A4 x4 | %61
w: am De- i-|ta- * *||tem, su-|* am|De- i- ta * *|
 F4 c8 B4 x12 | A16 x4 |"A" x16 x14 |] %64
w: tem, De- i-|ta-||
V:3
"^:""^Q" x8 ||[K:F][K:treble-8] z4 A8 d8 | c4 f6 f2 e4 x4 | e8 d8 | c4 A4 A4 B6 x2 | B2 A8 x6 | %6
w: |O ad-|mi- ra- bi- le|com- mer-|ti- um, com- ra-|bi- le|
 z8 D8 x4 | G4 G4 c6 c2 | B4 z2 G2 d6 c2 | _e6 e2 d8 x4 |"^(  )" e4 f8 d4 | d8 z4 d4 | %12
w: o|ad- mi- ra- bi-|le, o ad- mi|ra- bi- le|com- mer- ti-|um, cre-|
 c4 A4 B6 B2 | A4 G2 d4 ^c=B !courtesy!^c4 | d4 B4 A8 | G4 g4 f4 d4 x2 | e6 e2 d4 e4 x2 | %17
w: a- tor ge- ne-|ris hu- ma * * *|ni, hu- ma-|ni, cre- a- tor|ge- ne- ris hu-|
 A8 A4 c4 | B3 c d2 e2 f4 F4 x2 | G6 G2 A4 d4 x6 | B3 A GABc d8 | G3 A B2 c2 d4 G4 x2 | %22
w: ma- ni, cre-|a * * * * tor|ge- ne- ris hu-|ma * * * * * ni,|a- ni\-~ ~ma~- ~tum~ ~~cor- pus|
 B4 A4 z4 e6 | f2 g2 f2 e4 c4 x2 | c4 =B4 c4 G4 x2 | G8 G4 d3 e x4 | f2 ed c4 z4 A6 x12 | %27
w: su- mens, a-|ni- ma~- ~tum~ ~cor- pus,|cor- pus su- mens|cor- pus su *|* * * mens, a-|
 B2 c2 B2 A4 G4 x2 |[M:4/2][K:treble-8] A8 G4 G4 x2 | c6 B2 A8 x2 | d8 B2 A2 A8 | A4 D4 F4 x4 | %32
w: ni- ma- tum cor- pus|su- mens, de|Vir- gi- ne|na- sci di- gna-|tus est, de|
 B6 A2 G4 d6 x6 | a2 g2 f2 e2 f2 e2 d2 e4 | e4 d4 B8 | A2 G2 x8- x12 | x4 d4 d8 x8 | z4 g4 e4 e8 | %38
w: Vir- gi- ne na-|sci di \- gna * * * *|tus est, na-|sci di- gna-|tus est|et pro- ce-|
 A4 z4 d4 A4 x6 | d8 c4 =B8 | A8 x12 | z4 f4 d4 g6 x2 | fe d2 e2 ^c4 d8 | ^c4 d4 g4 f4 | %44
w: dens, et pro-|ce- dens ho-|mo,|si- ne se-||mi- ne, lar- gi-|
 d2 e2 f4 e4 x12 | z4 a4 g4 e2 f2 x2 | g8 f8 x2 | z4 d4 c4 A2 B2 | c6 BA G8 | F4 f4 e4 d8 | %50
w: tus est no- bis,|lar- gi- tus est|no- bis,|lar- gi- tus est|no- * * *|bis su- am De-|
 ^c4 d3 e f2 g2 a4 x4 | a4 b8 g8 | f4 d4 G3 A B2 c2 | d8 x8 | z8 z4 e4 | f8 e8 | d12 c4 x4 | %57
w: i- ta * * * tem|su- * am,|De- i- ta * * *|tem,|su-|* am|De- i-|
 B8 A8 x4 | z8 A4 d6 x2 | ^c2 d2 e2 f2 g2 a4 A8 | G4 A4 x12 | B2 c2 d6 c2 A6 x10 | B2 c6 d2 e6 x4 | %63
w: ta- tem,|su- *|am De- i- ta- * * tem.|De- i-|ta * * * *||
 d2 d8 ^c4"D" x16 |] %64
w: |
V:4
"^Q""^Q""^:""^U" x8 ||[K:F][K:bass] D,16 x4 | F,12 D,4 x4 | A,6 A,2 A,,4 A,,4 | %4
w: |O|ad- mi-|ra- bi- le com-|
w: ||||
 A,,6 =B,,2 ^C,4 D,4 x4 | z8 D,8 | G,12 F,4 x4 | B,6 B,2 A,8 | G,4 G,8 ^F,4 | G,16 x4 | %10
w: mer- * * um,|o|ad- mi-|ra- bi- le|com- mer- ti-|um,|
w: * * ti *||||||
 C,4 F,8 G,4 | D,8 z4 D,4 | E,4 ^F,4 G,6 G,2 | D,4 B,4 A,8 | D,8 z8 | z16 x2 | A,,8 B,,4 C,4 x2 | %17
w: com- mer- ti-|um, cre-|a- tor ge- ne-|ris hu- ma-|ni,||cre- a- tor|
w: |||||||
 D,6 D,2 A,,8 | z4 G,4 F,4 D,4 x2 | E,6 E,2 D,4 D,4 x6 | G,8 D,8 | z4 G,6 A,2 B,2 A,2 x2 | %22
w: ge- ne- ris,|cre- a- tor|ge- ne- ris hu-|ma- ni,|a- ni\-~ ~ma~- ~tum|
w: |||||
 G,4 F,4 G,4 A,4 x2 | G,8 z4 x4- | x2 D,2 E,2 D,2 C,4 =B,,4 x2 | C,4 G,,4 z4 D,6 x2 | %26
w: cor- pus su- *|mens, a-|ni- ma- tum~ ~cor- pus|su- mens, a-|
w: ||||
 E,2 F,2 E,2 D,4 C,4 D,16 |[M:4/2] D,8 z8 | z16 x2 | z16 x2 | z4 A,,4 B,,6 A,,2 x4 | %31
w: ni- ma- tum cor- pus su-|mens,|||de Vir- gi-|
w: |||||
 G,,4 G,8 ^F,2 E,2 | ^F,4 G,4 A,16 | z4 D,8 C,2 B,,2 x2 | A,,8 x8 | D,8 G,,16 | C,12 C,4 x8 | %37
w: ne na- sci- di-|gna- tus est,|na- sci di-|gna-|tus est|et pro-|
w: ||||||
 D,8 D,8 x4 | E,8 E,8 x6 | F,8 x12 | F,8 G,12 | G,4 A,8 A,8 | B,16 x2 | A,8 x8 | F,8 C,16 | %45
w: ce- dens|ho- mo|si-|ne se-|mi- ne, lar-|gi-|tus|est no-|
w: ||||||||
 F,4 B,4 A,4 F,2 G,2 x2 | A,8 A,,8 x2 | z8 x8 | z16 | A,8 B,8 x4 | A,8 G,4 F,4 x4 | E,8 D,8 x4 | %52
w: bis, lar- gi- tus est|no- bis|||su- *|am De- i-|ta- tem,|
w: |||||||
 z8 z4 F,4 | E,4 D,8 ^C,4 | D,3 E, F,2 G,2 A,8 | z16 | D,8 F,12 | E,4 F,4 G,4 A,8 | A,,16 x4 | %59
w: su-|am De- i-|ta * * * tem,||su- *|am De- i- ta-|tem|
w: |||||||
 z8 x14 | z4 D,8 F,8 | E,4 F,4 G,4 A,16 |"B" x16 x4 | x30 |] %64
w: |su *|am De- i- ta-|||
w: |||||

